optimized/line/money-pound-box.svg

<svg xmlns="http://www.w3.org/2000/svg" fill="currentColor" viewBox="0 0 24 24" aria-hidden="true">
  <path d="M3.005 3.003h18a1 1 0 011 1v16a1 1 0 01-1 1h-18a1 1 0 01-1-1v-16a1 1 0 011-1zm1 2v14h16v-14h-16zm5 8h-1v-2h1v-1A3.5 3.5 0 0115.75 8.69l-1.987.497a1.499 1.499 0 00-2.76.815v1h3v2h-3v2h5v2h-8v-2h1v-2z"/>
</svg>

<svg xmlns="http://www.w3.org/2000/svg" viewBox="0 0 24 24" aria-hidden="true">
  <path fill="none" d="M0 0h24v24H0z"/>
  <path d="M3 3h18a1 1 0 011 1v16a1 1 0 01-1 1H3a1 1 0 01-1-1V4a1 1 0 011-1zm1 2v14h16V5H4zm5 8H8v-2h1v-1a3.5 3.5 0 016.746-1.311l-1.986.496A1.499 1.499 0 0011 10v1h3v2h-3v2h5v2H8v-2h1v-2z"/>
</svg>
